64x64/apps/appimagekit-dockstation.svg

<svg xmlns="http://www.w3.org/2000/svg" width="64" height="64" version="1.1">
 <circle style="opacity:0.2" cx="32" cy="33" r="28"/>
 <path style="fill:#b3e8ff" d="M 60,32.001324 C 58.6,33.40139 44.718797,35.752447 29.254824,35.752447 13.790851,35.752447 5.4,33.40139 4,32.001324 4,16.536619 16.536027,3.9999998 32,3.9999998 c 15.463973,0 28,12.5366192 28,28.0013242 z"/>
 <path style="fill:#29b6f6" d="M 28.694141,25.984961 C 22.356804,26.072552 14.467066,27.674656 5.6023437,29.87388 4.7591931,30.083053 4.3593608,30.180096 4.0875,30.2321 4.0396831,30.82077 4.0105018,31.410807 4,32.001324 c 0.00288,15.41783 12.468186,27.932619 27.885157,27.995856 0.06311,-8.1e-5 0.09797,0.0031 0.161327,0.0028 C 47.491259,59.974338 59.99855,47.44685 60,32.001324 59.98908,30.989475 59.92339,29.978962 59.803125,28.974229 57.088137,30.261321 54.638416,31.020054 51.908423,31 44.673262,30.94369 37.686894,26.379529 31.313672,26.015039 c -0.84032,-0.03238 -1.714197,-0.04259 -2.619531,-0.03007 z"/>
 <path style="opacity:0.2" d="M 20.5,32 A 1.5,1.5 0 0 0 19,33.5 1.5,1.5 0 0 0 20.5,35 1.5,1.5 0 0 0 22,33.5 1.5,1.5 0 0 0 20.5,32 Z M 46,38 a 4,4 0 0 0 -4,4 4,4 0 0 0 4,4 4,4 0 0 0 4,-4 4,4 0 0 0 -4,-4 z M 30,54 a 2,2 0 0 0 -2,2 2,2 0 0 0 2,2 2,2 0 0 0 2,-2 2,2 0 0 0 -2,-2 z"/>
 <circle style="fill:#b3e8ff" cx="20.5" cy="32.5" r="1.5"/>
 <circle style="fill:#b3e8ff" cx="46" cy="41" r="4"/>
 <circle style="fill:#b3e8ff" cx="30" cy="55" r="2"/>
 <path style="opacity:0.1" d="M 28.693359 25.984375 C 22.356022 26.071966 14.466285 27.673823 5.6015625 29.873047 C 4.7584119 30.08222 4.3597514 30.180418 4.0878906 30.232422 C 4.0400737 30.821092 4.0105018 31.411436 4 32.001953 C 4.0000413 32.222868 4.0124476 32.440461 4.0175781 32.660156 C 4.0318726 32.183888 4.0493107 31.707376 4.0878906 31.232422 C 4.3597514 31.180418 4.7584119 31.08222 5.6015625 30.873047 C 14.466285 28.673823 22.356022 27.071966 28.693359 26.984375 C 29.598693 26.971855 30.474133 26.983245 31.314453 27.015625 C 37.687675 27.380115 44.673042 31.94369 51.908203 32 C 54.638196 32.020054 57.087746 31.261701 59.802734 29.974609 C 59.906824 30.844209 59.962176 31.718372 59.984375 32.59375 C 59.988502 32.396291 59.999981 32.200396 60 32.001953 C 59.98908 30.990104 59.922999 29.979342 59.802734 28.974609 C 57.087746 30.261701 54.638196 31.020054 51.908203 31 C 44.673042 30.94369 37.687675 26.380115 31.314453 26.015625 C 30.474133 25.983245 29.598693 25.971855 28.693359 25.984375 z"/>
 <path style="fill:#f4f4f7;opacity:0.2" d="M 32 4 C 16.536027 4 4 16.537248 4 32.001953 C 4.0063985 32.008352 4.0187001 32.015046 4.0253906 32.021484 C 4.5424457 17.011307 16.864533 5 32 5 C 47.134812 5 59.456554 17.010263 59.974609 32.019531 C 59.980528 32.013972 59.994471 32.007483 60 32.001953 C 60 16.537248 47.463973 4 32 4 z"/>
</svg>

<svg xmlns="http://www.w3.org/2000/svg" width="64" height="64"><circle style="opacity:.2" cx="32" cy="33" r="28"/><path style="fill:#b3e8ff" d="M60 32.001c-1.4 1.4-15.281 3.751-30.745 3.751S5.4 33.402 4 32.002C4 16.536 16.536 4 32 4s28 12.537 28 28.001z"/><path style="fill:#29b6f6" d="M28.694 25.985c-6.337.088-14.227 1.69-23.092 3.889-.843.21-1.243.306-1.514.358A28.003 28.003 0 0 0 4 32.002c.003 15.417 12.468 27.932 27.885 27.995.063 0 .098.003.161.003C47.491 59.974 60 47.447 60 32.001a28.013 28.013 0 0 0-.197-3.027c-2.715 1.287-5.165 2.046-7.895 2.026-7.235-.056-14.221-4.62-20.594-4.985a50.11 50.11 0 0 0-2.62-.03z"/><path style="opacity:.2" d="M20.5 32a1.5 1.5 0 0 0-1.5 1.5 1.5 1.5 0 0 0 1.5 1.5 1.5 1.5 0 0 0 1.5-1.5 1.5 1.5 0 0 0-1.5-1.5zM46 38a4 4 0 0 0-4 4 4 4 0 0 0 4 4 4 4 0 0 0 4-4 4 4 0 0 0-4-4zM30 54a2 2 0 0 0-2 2 2 2 0 0 0 2 2 2 2 0 0 0 2-2 2 2 0 0 0-2-2z"/><circle style="fill:#b3e8ff" cx="20.5" cy="32.5" r="1.5"/><circle style="fill:#b3e8ff" cx="46" cy="41" r="4"/><circle style="fill:#b3e8ff" cx="30" cy="55" r="2"/><path style="opacity:.1" d="M28.693 25.984c-6.337.088-14.227 1.69-23.091 3.889-.844.21-1.242.307-1.514.36A28.013 28.013 0 0 0 4 32.001c0 .22.012.438.018.658.014-.476.031-.953.07-1.428.272-.052.67-.15 1.514-.359 8.864-2.2 16.754-3.801 23.091-3.889a50.14 50.14 0 0 1 2.621.032c6.374.364 13.359 4.928 20.594 4.984 2.73.02 5.18-.738 7.895-2.025.104.87.16 1.743.181 2.619.005-.198.016-.394.016-.592a28.018 28.018 0 0 0-.197-3.027c-2.715 1.287-5.165 2.045-7.895 2.025-7.235-.056-14.22-4.62-20.594-4.984a50.14 50.14 0 0 0-2.62-.032z"/><path style="fill:#f4f4f7;opacity:.2" d="M32 4C16.536 4 4 16.537 4 32.002c.006.006.019.013.025.02C4.542 17.011 16.865 5 32 5c15.135 0 27.457 12.01 27.975 27.02.006-.006.02-.013.025-.018C60 16.537 47.464 4 32 4z"/></svg>
